src/lib/packages/icons/src/assets/line/comment-heart.svg

<svg width="24" height="24" viewBox="0 0 24 24" fill="none" xmlns="http://www.w3.org/2000/svg">
<path d="M3.85693 21.75C3.71193 21.75 3.57111 21.748 3.43311 21.743C2.93311 21.731 2.49497 21.411 2.32397 20.928C2.15197 20.442 2.29408 19.9131 2.68408 19.5811C3.61608 18.8291 3.98892 17.997 4.13892 17.426C2.90192 15.947 2.24902 14.08 2.24902 12.001C2.24902 6.84798 6.25902 3.25 11.999 3.25C17.739 3.25 21.749 6.84898 21.749 12.001C21.749 17.153 17.739 20.752 11.999 20.752C10.812 20.752 9.67398 20.591 8.60498 20.2729C7.24198 21.4599 5.36393 21.75 3.85693 21.75ZM3.47803 20.243C3.48003 20.243 3.48189 20.243 3.48389 20.243C3.48089 20.244 3.47903 20.244 3.47803 20.243ZM12 4.75C7.143 4.75 3.75 7.73198 3.75 12.001C3.75 13.837 4.35498 15.463 5.50098 16.703C5.65598 16.871 5.72692 17.101 5.69092 17.328C5.52292 18.399 4.99511 19.412 4.18311 20.243C5.34311 20.201 6.90304 19.934 7.86304 18.91C8.06404 18.694 8.37603 18.617 8.65503 18.714C9.69003 19.072 10.815 19.2531 12 19.2531C16.857 19.2531 20.25 16.271 20.25 12.002C20.25 7.73295 16.857 4.75 12 4.75ZM12 16.75C11.895 16.75 11.7889 16.728 11.6909 16.684C11.5379 16.615 7.92689 14.952 7.33789 11.938C7.09989 10.719 7.33606 9.56304 7.98706 8.76904C8.52906 8.10704 9.30307 7.75498 10.2261 7.75098C10.2311 7.75098 10.235 7.75098 10.24 7.75098C11.01 7.75098 11.589 8.06804 11.999 8.46704C12.409 8.06804 12.9881 7.75098 13.7571 7.75098C13.7611 7.75098 13.766 7.75098 13.771 7.75098C14.695 7.75498 15.469 8.10694 16.011 8.76794C16.661 9.56194 16.8989 10.717 16.6599 11.938C16.0709 14.952 12.4609 16.615 12.3069 16.684C12.2109 16.728 12.105 16.75 12 16.75ZM10.24 9.25C10.238 9.25 10.2371 9.25 10.2351 9.25C9.76711 9.252 9.40095 9.41002 9.14795 9.71802C8.78695 10.159 8.66104 10.882 8.81104 11.649C9.16604 13.467 11.211 14.7321 11.999 15.1591C12.787 14.7331 14.832 13.468 15.187 11.649C15.337 10.88 15.2111 10.158 14.8501 9.71704C14.5971 9.40904 14.232 9.25202 13.762 9.24902C13.76 9.24902 13.7591 9.24902 13.7571 9.24902C13.0211 9.24902 12.736 9.97899 12.707 10.063C12.6 10.361 12.315 10.563 11.999 10.563C11.997 10.563 11.994 10.563 11.991 10.563C11.672 10.56 11.3881 10.3581 11.2871 10.0551C11.2621 9.98005 10.978 9.25 10.24 9.25ZM15.925 11.793H15.9351H15.925Z" fill="currentColor"/>
</svg>

<svg xmlns="http://www.w3.org/2000/svg" width="24" height="24" fill="none"><path fill="currentColor" d="M3.857 21.75c-.145 0-.286-.002-.424-.007a1.207 1.207 0 0 1-1.109-.815 1.221 1.221 0 0 1 .36-1.347c.932-.752 1.305-1.584 1.455-2.155-1.237-1.479-1.89-3.346-1.89-5.425 0-5.153 4.01-8.751 9.75-8.751s9.75 3.599 9.75 8.751c0 5.152-4.01 8.751-9.75 8.751-1.187 0-2.325-.161-3.394-.48-1.363 1.188-3.241 1.478-4.748 1.478Zm-.379-1.507h.006-.006ZM12 4.75c-4.857 0-8.25 2.982-8.25 7.251 0 1.836.605 3.462 1.751 4.702a.749.749 0 0 1 .19.625c-.168 1.071-.696 2.084-1.508 2.915 1.16-.042 2.72-.309 3.68-1.333a.748.748 0 0 1 .792-.196c1.035.358 2.16.54 3.345.54 4.857 0 8.25-2.983 8.25-7.252 0-4.27-3.393-7.252-8.25-7.252Zm0 12a.757.757 0 0 1-.31-.066c-.152-.069-3.763-1.732-4.352-4.746-.238-1.219-.002-2.375.65-3.169.541-.662 1.315-1.014 2.238-1.018h.014c.77 0 1.349.317 1.759.716.41-.399.99-.716 1.758-.716h.014c.924.004 1.698.356 2.24 1.017.65.794.888 1.949.649 3.17-.59 3.014-4.2 4.677-4.353 4.746a.74.74 0 0 1-.307.066Zm-1.76-7.5h-.005c-.468.002-.834.16-1.087.468-.361.441-.487 1.164-.337 1.931.355 1.818 2.4 3.083 3.188 3.51.788-.426 2.833-1.691 3.188-3.51.15-.769.024-1.491-.337-1.932-.253-.308-.618-.465-1.088-.468h-.005c-.736 0-1.021.73-1.05.814a.756.756 0 0 1-.708.5h-.008a.747.747 0 0 1-.704-.508c-.025-.075-.309-.805-1.047-.805Zm5.685 2.543h.01-.01Z"/></svg>
